symbols/web/child_care/materialsymbolsoutlined/child_care_40px.svg

<svg xmlns="http://www.w3.org/2000/svg" height="40" width="40"><path d="M24.292 19.25q-.834 0-1.396-.562-.563-.563-.563-1.396 0-.792.563-1.354.562-.563 1.396-.563.791 0 1.354.563.562.562.562 1.354 0 .833-.562 1.396-.563.562-1.354.562Zm-8.584 0q-.833 0-1.396-.562-.562-.563-.562-1.396 0-.792.562-1.354.563-.563 1.396-.563.792 0 1.354.563.563.562.563 1.354 0 .833-.563 1.396-.562.562-1.354.562ZM20 28.167q-2.375 0-4.333-1.292-1.959-1.292-3-3.417h14.666q-1.041 2.125-3 3.417-1.958 1.292-4.333 1.292ZM20 35q-3.083 0-5.813-1.188-2.729-1.187-4.77-3.229-2.042-2.041-3.229-4.771Q5 23.083 5 20t1.188-5.812q1.187-2.73 3.229-4.771 2.041-2.042 4.77-3.229Q16.917 5 20 5q3.083 0 5.812 1.188 2.73 1.187 4.771 3.229 2.042 2.041 3.229 4.771Q35 16.917 35 20t-1.188 5.812q-1.187 2.73-3.229 4.771-2.041 2.042-4.771 3.229Q23.083 35 20 35Zm0-2.792q5.042 0 8.625-3.562 3.583-3.563 3.583-8.604 0-5-3.541-8.709-3.542-3.708-8.709-3.708h-.687q-.271 0-.646.083-.167.292-.229.688-.063.396-.063.729 0 1 .667 1.667.667.666 1.625.666.458 0 .792-.083.333-.083.625-.083.458 0 .77.25.313.25.313.708 0 .75-.729 1.083-.729.334-1.771.334-1.875 0-3.187-1.313-1.313-1.312-1.313-3.229v-.437q0-.271.083-.48-3.666 1.334-6.041 4.459-2.375 3.125-2.375 7.291 0 5 3.583 8.625T20 32.208Zm0-12.25Z"/></svg>

<svg xmlns="http://www.w3.org/2000/svg" height="40" width="40"><path d="M24.292 19.25Q23.458 19.25 22.896 18.688Q22.333 18.125 22.333 17.292Q22.333 16.5 22.896 15.938Q23.458 15.375 24.292 15.375Q25.083 15.375 25.646 15.938Q26.208 16.5 26.208 17.292Q26.208 18.125 25.646 18.688Q25.083 19.25 24.292 19.25ZM15.708 19.25Q14.875 19.25 14.312 18.688Q13.75 18.125 13.75 17.292Q13.75 16.5 14.312 15.938Q14.875 15.375 15.708 15.375Q16.5 15.375 17.062 15.938Q17.625 16.5 17.625 17.292Q17.625 18.125 17.062 18.688Q16.5 19.25 15.708 19.25ZM20 28.167Q17.625 28.167 15.667 26.875Q13.708 25.583 12.667 23.458H27.333Q26.292 25.583 24.333 26.875Q22.375 28.167 20 28.167ZM20 35Q16.917 35 14.187 33.812Q11.458 32.625 9.417 30.583Q7.375 28.542 6.188 25.812Q5 23.083 5 20Q5 16.917 6.188 14.188Q7.375 11.458 9.417 9.417Q11.458 7.375 14.187 6.188Q16.917 5 20 5Q23.083 5 25.812 6.188Q28.542 7.375 30.583 9.417Q32.625 11.458 33.812 14.188Q35 16.917 35 20Q35 23.083 33.812 25.812Q32.625 28.542 30.583 30.583Q28.542 32.625 25.812 33.812Q23.083 35 20 35ZM20 32.208Q25.042 32.208 28.625 28.646Q32.208 25.083 32.208 20.042Q32.208 15.042 28.667 11.333Q25.125 7.625 19.958 7.625Q19.542 7.625 19.271 7.625Q19 7.625 18.625 7.708Q18.458 8 18.396 8.396Q18.333 8.792 18.333 9.125Q18.333 10.125 19 10.792Q19.667 11.458 20.625 11.458Q21.083 11.458 21.417 11.375Q21.75 11.292 22.042 11.292Q22.5 11.292 22.812 11.542Q23.125 11.792 23.125 12.25Q23.125 13 22.396 13.333Q21.667 13.667 20.625 13.667Q18.75 13.667 17.438 12.354Q16.125 11.042 16.125 9.125Q16.125 8.958 16.125 8.688Q16.125 8.417 16.208 8.208Q12.542 9.542 10.167 12.667Q7.792 15.792 7.792 19.958Q7.792 24.958 11.375 28.583Q14.958 32.208 20 32.208ZM20 19.958Q20 19.958 20 19.958Q20 19.958 20 19.958Q20 19.958 20 19.958Q20 19.958 20 19.958Q20 19.958 20 19.958Q20 19.958 20 19.958Q20 19.958 20 19.958Q20 19.958 20 19.958Z"/></svg>
